svg/emoji_u1f5d3.svg

<?xml version="1.0" encoding="UTF-8" standalone="no"?>
<svg
   xmlns:dc="http://purl.org/dc/elements/1.1/"
   xmlns:cc="http://creativecommons.org/ns#"
   xmlns:rdf="http://www.w3.org/1999/02/22-rdf-syntax-ns#"
   xmlns:svg="http://www.w3.org/2000/svg"
   xmlns="http://www.w3.org/2000/svg"
   xmlns:sodipodi="http://sodipodi.sourceforge.net/DTD/sodipodi-0.dtd"
   xmlns:inkscape="http://www.inkscape.org/namespaces/inkscape"
   width="128"
   height="128"
   style="enable-background:new 0 0 128 128;"
   version="1.1"
   id="svg35"
   sodipodi:docname="emoji_u1f5d3.svg"
   inkscape:version="0.92.3 (2405546, 2018-03-11)">
  <metadata
     id="metadata41">
    <rdf:RDF>
      <cc:Work
         rdf:about="">
        <dc:format>image/svg+xml</dc:format>
        <dc:type
           rdf:resource="http://purl.org/dc/dcmitype/StillImage" />
      </cc:Work>
    </rdf:RDF>
  </metadata>
  <defs
     id="defs39">
    <clipPath
       clipPathUnits="userSpaceOnUse"
       id="clipPath831">
      <path
         id="path833"
         d="m 22.539062,13.519531 c -1.55,0 -2.808593,1.260547 -2.808593,2.810547 v 27.621094 c 0,1.108 1.784,2 4,2 h 77.888671 c 2.216,0 4,-0.892 4,-2 V 16.330078 c 0,-1.55 -1.25859,-2.810547 -2.80859,-2.810547 z"
         style="opacity:1;vector-effect:none;fill:#0078b3;fill-opacity:1;stroke-width:1;stroke-linecap:butt;stroke-linejoin:miter;stroke-miterlimit:4;stroke-dasharray:none;stroke-dashoffset:0;stroke-opacity:1;paint-order:stroke fill markers"
         inkscape:connector-curvature="0" />
    </clipPath>
  </defs>
  <sodipodi:namedview
     pagecolor="#ffffff"
     bordercolor="#666666"
     inkscape:document-rotation="0"
     borderopacity="1"
     objecttolerance="10"
     gridtolerance="10"
     guidetolerance="10"
     inkscape:pageopacity="0"
     inkscape:pageshadow="2"
     inkscape:window-width="1920"
     inkscape:window-height="1046"
     id="namedview37"
     showgrid="false"
     inkscape:snap-bbox="true"
     inkscape:bbox-paths="true"
     inkscape:bbox-nodes="true"
     inkscape:snap-bbox-edge-midpoints="true"
     inkscape:snap-bbox-midpoints="true"
     inkscape:zoom="7.7008348"
     inkscape:cx="61.403151"
     inkscape:cy="65.361175"
     inkscape:window-x="-11"
     inkscape:window-y="-11"
     inkscape:window-maximized="1"
     inkscape:current-layer="svg35" />
  <path
     inkscape:connector-curvature="0"
     id="path2"
     style="fill:#78909c"
     d="M 105.46,125.16 H 25.19 c -1.55,0 -2.81,-1.26 -2.81,-2.81 V 18.98 c 0,-1.55 1.26,-2.81 2.81,-2.81 h 80.27 c 1.55,0 2.81,1.26 2.81,2.81 v 103.38 c 0,1.55 -1.26,2.8 -2.81,2.8 z" />
  <path
     inkscape:connector-curvature="0"
     id="path4"
     style="fill:#e0e0e0"
     d="M 102.81,122.52 H 22.54 c -1.55,0 -2.81,-1.26 -2.81,-2.81 V 16.33 c 0,-1.55 1.26,-2.81 2.81,-2.81 h 80.27 c 1.55,0 2.81,1.26 2.81,2.81 v 103.38 c 0,1.55 -1.26,2.81 -2.81,2.81 z" />
  <path
     inkscape:connector-curvature="0"
     id="path6"
     style="fill:#b0bec5"
     d="m 105.62,94.41 -12.33,15.42 -15.87,12.69 h 25.39 c 1.57,0 2.81,-1.21 2.81,-2.81 z" />
  <path
     inkscape:connector-curvature="0"
     id="path8"
     style="fill:#78a3ad"
     d="m 77.42,122.52 c 0.8,-4.37 1.08,-9.48 0.36,-15.99 -0.16,-1.49 0.94,-2.81 2.44,-2.88 3.46,-0.17 9.4,-0.61 13.61,-1.73 6.03,-1.6 11.79,-7.51 11.79,-7.51 0,0 -3.51,9.33 -12.76,18.26 -6.52,6.29 -15.44,9.85 -15.44,9.85 z" />
  <text
     xml:space="preserve"
     style="font-style:normal;font-weight:normal;font-size:65.30043793px;line-height:40.81277084px;font-family:Sans;letter-spacing:0px;word-spacing:0px;fill:#00199e;fill-opacity:1;stroke:none;stroke-width:1px;stroke-linecap:butt;stroke-linejoin:miter;stroke-opacity:1"
     x="32.372139"
     y="97.964348"
     id="text4344"><tspan
       sodipodi:role="line"
       id="tspan4342"
       x="32.372139"
       y="97.964348"
       style="font-style:normal;font-variant:normal;font-weight:bold;font-stretch:normal;font-family:'Comic Neue';-inkscape-font-specification:'Comic Neue Bold';fill:#00199e;fill-opacity:1;stroke-width:1px">17</tspan></text>
  <path
     style="opacity:1;vector-effect:none;fill:#0078b3;fill-opacity:1;stroke-width:1;stroke-linecap:butt;stroke-linejoin:miter;stroke-miterlimit:4;stroke-dasharray:none;stroke-dashoffset:0;stroke-opacity:1;paint-order:stroke fill markers"
     d="M 22.539062 13.519531 C 20.989062 13.519531 19.730469 14.780078 19.730469 16.330078 L 19.730469 43.951172 C 19.730469 45.059172 21.514469 45.951172 23.730469 45.951172 L 101.61914 45.951172 C 103.83514 45.951172 105.61914 45.059172 105.61914 43.951172 L 105.61914 16.330078 C 105.61914 14.780078 104.36055 13.519531 102.81055 13.519531 L 22.539062 13.519531 z "
     id="rect4369" />
  <path
     style="fill:#616161"
     d="M 38.150391 2.8398438 C 33.070391 2.8398437 29.089844 7.7194531 29.089844 13.939453 C 29.089844 20.159453 33.070391 25.039062 38.150391 25.039062 C 39.810391 25.039062 41.160156 23.689297 41.160156 22.029297 C 41.160156 20.369297 39.820156 19.029297 38.160156 19.029297 C 36.720156 19.029297 35.099609 16.849688 35.099609 13.929688 C 35.099609 11.009687 36.720156 8.8300781 38.160156 8.8300781 C 39.540605 8.8300781 41.071768 10.841869 41.197266 13.580078 L 47.195312 13.580078 C 47.043741 7.5344642 43.131026 2.8398438 38.150391 2.8398438 z "
     id="path14" />
  <path
     style="fill:#616161"
     d="M 62.460938 2.8398438 C 57.380937 2.8398437 53.400391 7.7194531 53.400391 13.939453 C 53.400391 20.159453 57.380938 25.039062 62.460938 25.039062 C 64.120938 25.039063 65.460938 23.699063 65.460938 22.039062 C 65.460938 20.379062 64.120937 19.039062 62.460938 19.039062 C 61.020937 19.039063 59.400391 16.859453 59.400391 13.939453 C 59.400391 11.019453 61.020938 8.8398438 62.460938 8.8398438 C 63.839708 8.8398438 65.365348 10.846985 65.494141 13.580078 L 71.505859 13.580078 C 71.35431 7.5344379 67.441588 2.8398438 62.460938 2.8398438 z "
     id="path20" />
  <path
     style="fill:#616161"
     d="M 86.769531 2.8398438 C 81.689531 2.8398437 77.710938 7.7194531 77.710938 13.939453 C 77.710937 20.159453 81.689531 25.039062 86.769531 25.039062 C 88.429531 25.039063 89.769531 23.699063 89.769531 22.039062 C 89.769531 20.379062 88.429531 19.039062 86.769531 19.039062 C 85.329531 19.039063 83.710938 16.859453 83.710938 13.939453 C 83.710938 11.019453 85.329531 8.8398438 86.769531 8.8398438 C 88.148302 8.8398438 89.675895 10.846985 89.804688 13.580078 L 95.814453 13.580078 C 95.662882 7.5344642 91.750167 2.8398438 86.769531 2.8398438 z "
     id="path26" />
  <text
     xml:space="preserve"
     style="font-style:normal;font-weight:normal;font-size:25.52565765px;line-height:1.25;font-family:sans-serif;letter-spacing:0px;word-spacing:0px;fill:#ffffff;fill-opacity:1;stroke:none;stroke-width:0.63814145;"
     x="40.961697"
     y="43.708603"
     id="text827"
     clip-path="url(#clipPath831)"><tspan
       sodipodi:role="line"
       id="tspan825"
       x="40.961697"
       y="43.708603"
       style="font-style:normal;font-variant:normal;font-weight:bold;font-stretch:normal;font-family:'Comic Neue';-inkscape-font-specification:'Comic Neue Bold';stroke-width:0.63814145;fill:#ffffff;fill-opacity:1;">July</tspan></text>
</svg>

<svg xmlns="http://www.w3.org/2000/svg" width="128" height="128"><defs><clipPath id="a"><path d="M22.54 13.52a2.812 2.812 0 0 0-2.81 2.81v27.621c0 1.108 1.784 2 4 2h77.89c2.215 0 4-.892 4-2v-27.62c0-1.55-1.26-2.811-2.81-2.811z" fill="#0078b3" paint-order="stroke fill markers"/></clipPath></defs><path d="M105.46 125.16H25.19c-1.55 0-2.81-1.26-2.81-2.81V18.98c0-1.55 1.26-2.81 2.81-2.81h80.27c1.55 0 2.81 1.26 2.81 2.81v103.38c0 1.55-1.26 2.8-2.81 2.8z" fill="#78909c"/><path d="M102.81 122.52H22.54c-1.55 0-2.81-1.26-2.81-2.81V16.33c0-1.55 1.26-2.81 2.81-2.81h80.27c1.55 0 2.81 1.26 2.81 2.81v103.38c0 1.55-1.26 2.81-2.81 2.81z" fill="#e0e0e0"/><path d="M105.62 94.41l-12.33 15.42-15.87 12.69h25.39c1.57 0 2.81-1.21 2.81-2.81z" fill="#b0bec5"/><path d="M77.42 122.52c.8-4.37 1.08-9.48.36-15.99-.16-1.49.94-2.81 2.44-2.88 3.46-.17 9.4-.61 13.61-1.73 6.03-1.6 11.79-7.51 11.79-7.51s-3.51 9.33-12.76 18.26c-6.52 6.29-15.44 9.85-15.44 9.85z" fill="#78a3ad"/><text style="line-height:40.81277084px" x="32.372" y="97.964" font-weight="400" font-size="65.3" font-family="Sans" letter-spacing="0" word-spacing="0" fill="#00199e"><tspan x="32.372" y="97.964" style="-inkscape-font-specification:'Comic Neue Bold'" font-weight="700" font-family="Comic Neue">17</tspan></text><path d="M22.54 13.52a2.812 2.812 0 0 0-2.81 2.81v27.621c0 1.108 1.784 2 4 2h77.89c2.215 0 4-.892 4-2v-27.62c0-1.55-1.26-2.811-2.81-2.811H22.54z" fill="#0078b3" paint-order="stroke fill markers"/><path d="M38.15 2.84c-5.08 0-9.06 4.88-9.06 11.1s3.98 11.1 9.06 11.1c1.66 0 3.01-1.35 3.01-3.01 0-1.66-1.34-3-3-3-1.44 0-3.06-2.18-3.06-5.1 0-2.92 1.62-5.1 3.06-5.1 1.38 0 2.912 2.012 3.037 4.75h5.998c-.151-6.046-4.064-10.74-9.045-10.74zM62.46 2.84c-5.08 0-9.06 4.88-9.06 11.1s3.98 11.1 9.06 11.1c1.66 0 3-1.34 3-3s-1.34-3-3-3c-1.44 0-3.06-2.18-3.06-5.1 0-2.92 1.62-5.1 3.06-5.1 1.38 0 2.905 2.007 3.034 4.74h6.012c-.152-6.046-4.064-10.74-9.045-10.74zM86.77 2.84c-5.08 0-9.06 4.88-9.06 11.1s3.98 11.1 9.06 11.1c1.66 0 3-1.34 3-3s-1.34-3-3-3c-1.44 0-3.06-2.18-3.06-5.1 0-2.92 1.62-5.1 3.06-5.1 1.378 0 2.906 2.007 3.035 4.74h6.01C95.662 7.534 91.75 2.84 86.77 2.84z" fill="#616161"/><text style="line-height:1.25" x="40.962" y="43.709" clip-path="url(#a)" font-weight="400" font-size="25.526" font-family="sans-serif" letter-spacing="0" word-spacing="0" fill="#fff" stroke-width=".638"><tspan x="40.962" y="43.709" style="-inkscape-font-specification:'Comic Neue Bold'" font-weight="700" font-family="Comic Neue">July</tspan></text></svg>
